X:1
T: The Haymakers (NEAL)
N:
C:
S:
A:
O:
R:
M:4/4
K:G
I:speed 210
%W: A1
% voice 1 (1 lines, 32 notes)
K:G
M:4/4
L:1/16
g8 f2 g2 a2 f2 |g4 d4 d4 c4 |B4 A2 G2 A4 d4 |B8 A8 |g8 f2 g2 a2 f2 |g4 d4 d4 g4 |a2 b2 c'4 c'4 b4 |a8 d8 |
%W: A2
% voice 1 (1 lines, 32 notes)
g8 f2 g2 a2 f2 |g4 d4 d4 c4 |B4 A2 G2 A4 d4 |B8 A8 |g8 f2 g2 a2 f2 |g4 d4 d4 g4 |a2 b2 c'4 c'4 b4 |a8 d8 |
%W: B1
% voice 1 (1 lines, 38 notes)
B2 c2 d2 e2 d8 |B4 d4 d8 |B2 c2 d2 e2 d2 c2 B2 A2 |B4 g4 g8 |g2 a2 b2 a2 g2 a2 b2 a2 |g4 d4 d4 c4 |B2 c2 d4 d4 c4 |B8 G8 |
%W: B2
% voice 1 (1 lines, 38 notes)
B2 c2 d2 e2 d8 |B4 d4 d8 |B2 c2 d2 e2 d2 c2 B2 A2 |B4 g4 g8 |g2 a2 b2 a2 g2 a2 b2 a2 |g4 d4 d4 c4 |B2 c2 d4 d4 c4 |B8 G8 ||
